X:1
T: The Macroom Lasses
C:
R:Reel
Q: 232
K:A
M:4/4
L:1/8
AF|:EA Ac BA af|ec Bd cA FA|EA Ac BA af|ec Bc A2 AF|
EA Ac BA af|ec Bd cA FA|EA Ac BA af|1ec Bc A2 AF|2ec Bc A2 ((3efg) |
|:ag af ea ce|dB cA BA fg|ag af ea c'a|ba bc' a2 ab|
c'a fa ea ce|dB cA BA FA|EF AB cA af|1ec Bc A2 ((3efg) :|2ec Bc A2||
